packages/core/src/svgs/powr.svg

<svg width="24" height="24" viewBox="0 0 24 24" fill="none" xmlns="http://www.w3.org/2000/svg">
<g clip-path="url(#clip0_31_16432)">
<path d="M0 0H24V24H0V0Z" fill="#45DAE2"/>
<path opacity="0.9" d="M11.9633 5.15723L14.2475 7.44151L11.9633 9.73008L9.67383 7.44665L11.9633 5.15723Z" fill="white"/>
<path opacity="0.85" d="M8.51868 6.11251L11.6571 6.88265L10.887 10.0262L7.74854 9.25608L8.51868 6.10693V6.11251Z" fill="white"/>
<path opacity="0.3" d="M15.3757 6.08594L13.4926 6.59251L14.342 7.44708L12.8069 8.9818L13.097 10.0528L16.2196 9.20851L15.3757 6.08594Z" fill="white"/>
<path opacity="0.35" d="M17.8551 8.56507L17.0849 11.7035L13.9409 10.9385L14.7111 7.79492L17.8551 8.56507Z" fill="white"/>
<path opacity="0.4" d="M18.8572 12.0144L16.6209 14.357L14.2839 12.1258L16.5207 9.78369L18.8572 12.02V12.0144Z" fill="white"/>
<path opacity="0.45" d="M17.9078 15.5852L14.7694 16.3661L13.9885 13.2276L17.127 12.4468L17.9078 15.5852Z" fill="white"/>
<path opacity="0.5" d="M15.418 18.028L12.2795 17.2579L13.0445 14.125L16.1881 14.8947L15.418 18.0331V18.028Z" fill="white"/>
<path opacity="0.55" d="M11.9737 18.983L9.68945 16.6987L11.9737 14.4097L14.2627 16.6987L11.9737 18.983Z" fill="white"/>
<path opacity="0.6" d="M8.56621 18.107L7.72192 14.984L10.8394 14.1401L11.6836 17.2576L8.56621 18.1019V18.107Z" fill="white"/>
<path opacity="0.65" d="M6.03932 15.4959L6.80432 12.3574L9.94789 13.1276L9.17775 16.266L6.03418 15.4959H6.03932Z" fill="white"/>
<path opacity="0.7" d="M5.14282 12.1518L7.42711 9.86279L9.71568 12.1518L7.43225 14.4361L5.14282 12.1518Z" fill="white"/>
<path opacity="0.75" d="M5.98703 8.57021L9.11475 7.79492L9.89518 10.9334L6.75675 11.7142L5.97632 8.57578L5.9866 8.57021H5.98703Z" fill="white"/>
</g>
<defs>
<clipPath id="clip0_31_16432">
<rect width="24" height="24" fill="white"/>
</clipPath>
</defs>
</svg>

<svg xmlns="http://www.w3.org/2000/svg" width="24" height="24" fill="none" viewBox="0 0 24 24"><g clip-path="url(#a)"><path fill="#45DAE2" d="M0 0h24v24H0z"/><path fill="#fff" d="m11.963 5.157 2.285 2.285-2.285 2.288-2.29-2.283z" opacity=".9"/><path fill="#fff" d="m8.519 6.113 3.138.77-.77 3.143-3.138-.77.77-3.15z" opacity=".85"/><path fill="#fff" d="m15.376 6.086-1.883.507.849.854-1.535 1.535.29 1.07 3.123-.843z" opacity=".3"/><path fill="#fff" d="m17.855 8.565-.77 3.139-3.144-.766.77-3.143z" opacity=".35"/><path fill="#fff" d="m18.857 12.014-2.236 2.343-2.337-2.231 2.237-2.342 2.336 2.236z" opacity=".4"/><path fill="#fff" d="m17.908 15.585-3.139.781-.78-3.138 3.138-.781z" opacity=".45"/><path fill="#fff" d="m15.418 18.028-3.138-.77.765-3.133 3.143.77-.77 3.138z" opacity=".5"/><path fill="#fff" d="m11.974 18.983-2.285-2.284 2.285-2.29 2.289 2.29z" opacity=".55"/><path fill="#fff" d="m8.566 18.107-.844-3.123 3.117-.844.845 3.118-3.118.844z" opacity=".6"/><path fill="#fff" d="m6.04 15.496.764-3.139 3.144.77-.77 3.139-3.144-.77z" opacity=".65"/><path fill="#fff" d="m5.143 12.152 2.284-2.29 2.289 2.29-2.284 2.284z" opacity=".7"/><path fill="#fff" d="m5.987 8.57 3.128-.775.78 3.138-3.138.781-.78-3.138z" opacity=".75"/></g><defs><clipPath id="a"><path fill="#fff" d="M0 0h24v24H0z"/></clipPath></defs></svg>
